assets/icons/contact-icon.svg

<svg xmlns="http://www.w3.org/2000/svg" width="24" height="24" viewBox="0 0 24 24"><path d="M0 3v18h24v-18h-24zm6.623 7.929l-4.623 5.712v-9.458l4.623 3.746zm-4.141-5.929h19.035l-9.517 7.713-9.518-7.713zm5.694 7.188l3.824 3.099 3.83-3.104 5.612 6.817h-18.779l5.513-6.812zm9.208-1.264l4.616-3.741v9.348l-4.616-5.607z"/></svg>

<?xml version="1.0" encoding="utf-8"?>
<!-- Generator: Adobe Illustrator 24.1.1, SVG Export Plug-In . SVG Version: 6.00 Build 0)  -->
<svg version="1.1" id="Layer_1" xmlns="http://www.w3.org/2000/svg" xmlns:xlink="http://www.w3.org/1999/xlink" x="0px" y="0px"
	 viewBox="0 0 24 24" style="enable-background:new 0 0 24 24;" xml:space="preserve">
<style type="text/css">
	.st0{fill:#E6E6E6;}
</style>
<path class="st0" d="M0,3v18h24V3H0z M6.6,10.9L2,16.6V7.2C2,7.2,6.6,10.9,6.6,10.9z M2.5,5h19L12,12.7C12,12.7,2.5,5,2.5,5z
	 M8.2,12.2l3.8,3.1l3.8-3.1l5.6,6.8H2.7L8.2,12.2z M17.4,10.9L22,7.2v9.3C22,16.5,17.4,10.9,17.4,10.9z"/>
</svg>
